X:3001
T:Caitlin Triall
R:Waltz
C:Turlough O'Carolan (1670-1738)
O:Ireland
M:3/4
L:1/8
Q:1/4=100
K:G
G>E|:"G"D3 E G2|G2 A2 B2|"Em"B2 g2 f2|"C"e g3 e2|"G"d3 B G2|"Em"B A3 G2|1"C"E6-|"D7"E4 G>E:|2"G"G6||
"G"G4 de/f/|g3 f g2|"Em"e d3 B2|"G"g3 f g2|"Em"e g3 e2|"G"d3 B G2|"Em"B A3 G2|"C"E6-|"D7"E4 G>E|
"G"D3 E G2|G2 A2 B2|"Em"B2 g2 f2|"C"e g3 e2|"G"d3 B G2|"D7"B B3 A2|"C"G4 (3AGF|"G"G4|]

